src/pos-icons/fire-hydrant.svg

<svg height="24" viewBox="0 0 24 24" width="24" xmlns="http://www.w3.org/2000/svg"><path d="m5 15v-1h-1v-2h1v-1h2v4zm14-3v-1h-2v4h2v-1h1v-2zm-1-6h-2.14c-.36-1.4-1.46-2.5-2.86-2.86v-1.14h-2v1.14c-1.4.36-2.5 1.46-2.86 2.86h-2.14v2h12zm0 16h-12c0-1.1.9-2 2-2v-11h8v11c1.11 0 2 .9 2 2m-8-9c0 1.11.9 2 2 2s2-.89 2-2-.89-2-2-2-2 .9-2 2z"/></svg>

<?xml version="1.0" encoding="UTF-8"?><!DOCTYPE svg PUBLIC "-//W3C//DTD SVG 1.1//EN" "http://www.w3.org/Graphics/SVG/1.1/DTD/svg11.dtd"><svg xmlns="http://www.w3.org/2000/svg" xmlns:xlink="http://www.w3.org/1999/xlink" version="1.1" id="mdi-fire-hydrant" width="24" height="24" viewBox="0 0 24 24"><path d="M5 15V14H4V12H5V11H7V15H5M19 12V11H17V15H19V14H20V12H19M18 6H15.86C15.5 4.6 14.4 3.5 13 3.14V2H11V3.14C9.6 3.5 8.5 4.6 8.14 6H6V8H18V6M18 22H6C6 20.9 6.9 20 8 20V9H16V20C17.11 20 18 20.9 18 22M10 13C10 14.11 10.9 15 12 15S14 14.11 14 13 13.11 11 12 11 10 11.9 10 13Z" /></svg>
